X: 1
T: String Quartet in G Minor opus 74 no 3 mvt 4
C: Franz Joseph Haydn
%%abc-version 2.0
%%abcx-abcm2ps-target-version 5.9.1 (29 Sep 2008)
%%abc-creator hum2abc beta
%%abcx-conversion-date 2021/02/14 14:38:27
%%abc-copyright Copyright (c) 1994, 2000 Center for Computer Assisted Research in the Humanities
%%abc-edited-by Frances Bennion
%%abcx-initial-encoding-date 1997/04/15
%%gracespace 0 6 6
%%humdrum-veritas 4174605079
%%humdrum-veritas-data 1270665190
%%linebreak <none>
%%barnumbers 0
L: 1/8
M: 4/4
N: Derived from op74n3-04.krn
Q: "Finale: Allegro"
%%staves [1 2 3 4]
V: 1
V: 2
V: 3 clef=alto
V: 4 clef=bass
K: Bb
[V:1]z7 G,/B,/ [I:setbarnb1]|
[V:2]z7 z |
[V:3]z7 z |
[V:4]z7 z |
[V:1]DD zD zD zD |
[V:2]B,z B,z B,z B,z |
[V:3]D,z D,z D,z D,z |
[V:4]G,,z G,,z G,,z G,,z |
[V:1]D/E/D/^C/ DD zD zD |
[V:2]A,z A,z A,z A,z |
[V:3][D,C]z [D,C]z [D,C]z [CD,]z |
[V:4]^F,,z F,,z F,,z F,,z |
[V:1]DB B4 AG |
[V:2]B,D DD DD DD |
[V:3]D,B, B,B, B,B, B,B, |
[V:4]G,,G, G,G, G,G, G,G, |
[V:1]^F/G/F/=E/ F/D/E/F/ G/A/B/c/ d/c/B/A/ |
[V:2]DD DD DD DD |
[V:3]CC CC CC CC |
[V:4]A,A, A,A, A,A, A,A, |
[V:1]G/A/G/^F/ G/A/B/c/ d/=e/^f/g/ f/g/f/g/ |
[V:2]GG GG GG GG |
[V:3]DD DD DD DD |
[V:4]B,B, B,B, B,B, B,B, |
[V:1]fe2 d2 c2 B- |
[V:2]G8- |
[V:3]C2 D2 E2 D2 |
[V:4]C2 D2 E2 D2 |
[V:1]BA2 B2 A2 B |
[V:2]G^F2 G2 F2 G |
[V:3]E2 D2 E2 =E2 |
[V:4]C2 B,2 C2 ^C2 |
[V:1]Ad dd d2 zG,/B,/ |
[V:2]^FF FF F2 z2 |
[V:3]DD DD D2 z2 |
[V:4]DD DD D2 z2 |
[V:1]DD zD zD zD |
[V:2]B,z B,z B,z B,z |
[V:3]D,z D,z D,z D,z |
[V:4]G,,z G,,z G,,z G,,z |
[V:1]D/E/D/^C/ DD zD zD |
[V:2]A,z A,z A,z A,z |
[V:3][CD,]z [CD,]z [CD,]z [D,C]z |
[V:4]^F,,z F,,z F,,z F,,z |
[V:1]DB B4 AG |
[V:2]B,D DD DD DD |
[V:3]D,G, G,G, G,G, G,G, |
[V:4]G,,G, G,G, G,G, G,G, |
[V:1]Fg g4 fe |
[V:2]Ee e4 dc |
[V:3]CC CC CC CC |
[V:4]A,,A, A,A, A,A, A,A, |
[V:1]df2 f2 g/f/ e/d/c/B/ |
[V:2]Bz Fz Fz Fz |
[V:3]Dz Dz Dz Dz |
[V:4]B,z B,z B,z B,z |
[V:1]Ac'2 b2 a gf |
[V:2]Fz [AE]z [AE]z [AE]z |
[V:3]Ez Fz Fz Fz |
[V:4]Cz Cz Cz Cz |
[V:1]ff'2 e'2 d' c'b |
[V:2]Bz Bz Bz Bz |
[V:3]Fz Fz Fz Fz |
[V:4]Dz Dz Dz Dz |
[V:1]ag2 f2 e dc |
[V:2]Bz =Bz cz cz |
[V:3]Gz Gz Gz Gz |
[V:4]Ez Ez Ez Ez |
[V:1]=Bd/c/ ce/d/ df/e/ eg |
[V:2]_Az Gz =Bz cz |
[V:3]Fz Ez Gz Gz |
[V:4]Fz Ez Dz Cz |
[V:1]B4 A2 zB/d/ |
[V:2]D4 C2 z2 |
[V:3]F4 F,2 z2 |
[V:4]F,4 F,,2 z2 |
[V:1]f2 db f2 dB |
[V:2]zF zF zF zF |
[V:3]zD zD zD zD |
[V:4]B,,z D,z F,z B,z |
[V:1]Az cz ez2 F |
[V:2]zF zF zF zF |
[V:3]zE zE zE zE |
[V:4]F,z A,z Cz A,z |
[V:1]f/g/f/e/ db f/g/f/e/ dB |
[V:2]zF zF zF zF |
[V:3]zD zD zD zD |
[V:4]B,,z D,z F,z B,z |
[V:1]A/B/A/B/ c/d/c/d/ e2 zF |
[V:2]zF zF zF zF |
[V:3]zE zE zE zE |
[V:4]F,z A,z Cz A,z |
[V:1]d/e/d/c/ Bd f/g/f/e/ df |
[V:2]F/G/F/E/ DB d/e/d/c/ Bd |
[V:3][DB,][DB,] [DB,][B,D] [B,D][B,D] [B,D][B,D] |
[V:4]B,,B, B,B, B,,B, B,B, |
[V:1]d'2 c'/b/a/g/ f2 zf |
[V:2][fDB]z [EgB]z [f2B2D2] zA |
[V:3]B,z B,z B,2 zF |
[V:4]B,,z B,,z B,,2 zF, |
[V:1]=ez _ez dz g2 |
[V:2]Bz cz Bz B2 |
[V:3]Gz Fz Fz E2 |
[V:4]G,z A,z B,z E,2 |
[V:1]B4- BA gf |
[V:2]D4 E4 |
[V:3]B,4 C4 |
[V:4]F,8 |
[V:1]e4 d2 zB/d/ |
[V:2]A4 B2 z2 |
[V:3]C4 B,2 z2 |
[V:4]^F,4 G,2 z2 |
[V:1]f2 db f2 dB |
[V:2]z7 B/d/ |
[V:3]zD zD zD zD |
[V:4]B,,z D,z F,z B,z |
[V:1]Az cz e2 zF |
[V:2]e2 cc' a2 ec |
[V:3]zC zA, zF, zF, |
[V:4]F,z A,z Cz A,z |
[V:1]f/g/f/e/ db f/g/f/e/ dB |
[V:2]d2 z4 zB/d/ |
[V:3]zD zD zD zD |
[V:4]B,,z D,z F,z B,z |
[V:1]A/B/A/B/ c/d/c/d/ e2 zE |
[V:2]e/f/e/d/ cc' a/b/c'/a/ eA |
[V:3]zC zA, zF, zF, |
[V:4]F,z A,z Cz F,z |
[V:1]D/B/f/g/ f/b/a/g/ f/e/d/c/ B/A/c/E/ |
[V:2]B2 z4 [EA,]z |
[V:3]B,2 z4 Cz |
[V:4]B,2 z4 F,z |
[V:1]D/B/f/g/ f/b/a/g/ f/e/d/c/ B/A/c/E/ |
[V:2][DB,]z4 z [EA,]z |
[V:3]B,z4 z Cz |
[V:4]B,,z4 z F,z |
[V:1]D/B/f/f/ E/B/g/g/ D/B/f/f/ E/B/g/g/ |
[V:2][DB,]z gz fz gz |
[V:3]B,z Ez Dz Ez |
[V:4]B,z B,z B,z B,z |
[V:1]f/b/a/g/ f/e/d/c/ B/d'/c'/b/ a/g/f/e/ |
[V:2]f2 z2 z/b/a/g/ f/e/d/c/ |
[V:3]D2 z2 D2 z2 |
[V:4]B,2 z2 B,2 z2 |
[V:1]d/f'/e'/d'/ c'/b/a/g/ f/b'/b'/b'/ b'/b'/b'/b'/ |
[V:2]B/d'/c'/b/ a/g/f/e/ d2 z2 |
[V:3]D2 z6 |
[V:4]B,2 z6 |
[V:1]b'2 z=B, B,B, B,B, |
[V:2]z2 >=B,2 B,B, B,B, |
[V:3]z2 >=B,2 B,B, B,B, |
[V:4]z2 >=B,,2 B,,B,, B,,B,, |
[V:1]_A4 GC =B,_B, |
[V:2]F4 EC =B,_B, |
[V:3]D4 CC =B,_B, |
[V:4]=B,,4 C,C, B,,_B,, |
[V:1]_G4 DB, A,_A, |
[V:2]E4 DB, A,_A, |
[V:3]C4 B,B, A,_A, |
[V:4]A,,4 B,,B,, A,,_A,, |
[V:1]G,B,/E/ GB eg bg |
[V:2]G,B, B,B, B,B, B,B, |
[V:3]G,G, G,G, G,G, G,G, |
[V:4]G,,E,, E,,E,, E,,E,, E,,E,, |
[V:1]f2- f/b/a/g/ f2- f/b/a/g/ |
[V:2]DD D^C DD DC |
[V:3]B,B, B,B, B,B, B,B, |
[V:4]F,,F, F,=E, F,F, F,E, |
[V:1]f/g/f/=e/ f/b/a/g/ f/_e/d/c/ B/A/G/F/ |
[V:2]D8 |
[V:3]B,8 |
[V:4]F,8 |
[V:1]=E/F/E/D/ Eg _E/F/E/D/ Ec |
[V:2]C8 |
[V:3]B,4 F,4 |
[V:4]G,4 A,4 |
[V:1]D2 f4 A2 |
[V:2]D/E/D/C/ D/F/E/D/ E/F/E/D/ E/G/F/E/ |
[V:3]B,/C/B,/A,/ B,/D/C/B,/ C/D/C/=B,/ C/E/D/C/ |
[V:4]B,2 z6 |
[V:1]B/c/B/A/ B/f/e/d/ c/d/c/=B/ c/g/f/e/ |
[V:2]F2 B4 A2 |
[V:3]D4 E2 F2 |
[V:4]z8 |
[V:1]d2 f'4 e'2 |
[V:2]B/c/B/A/ B/d/c/B/ A/B/c/d/ e/f/g/a/ |
[V:3]D/E/D/C/ D/F/E/D/ C/D/E/F/ G/A/B/c/ |
[V:4]B,2 z6 |
[V:1]d'2 b'4 _a'2 |
[V:2]bB BB BB BB |
[V:3]dF FF FF FF |
[V:4]B,D DD DD DD |
[V:1]^f'g'2 <g'2 f'/g'/ b'2- |
[V:2]BB BB B2 zB |
[V:3]GG GG G2 zG |
[V:4]EE EE E2 zE |
[V:1]b'^f'/g'/ b'f'/g'/ b'f'/g'/ b'b' |
[V:2]B2 z6 |
[V:3]G2 z6 |
[V:4]E2 z6 |
[V:1]b4 c'b c'd' |
[V:2]d4 ed ef |
[V:3]F4 A,4 |
[V:4]F,4 F,4 |
[V:1]b2 z2 A/B/c/B/ A/e/c/A/ |
[V:2]d/e/d/c/ d/f/e/d/ e4 |
[V:3]B/c/B/A/ B/d/c/B/ c4 |
[V:4]B,2 z2 F,/G,/A,/G,/ F,/C/A,/F,/ |
[V:1]B2 z2 a/b/c'/b/ a/e'/c'/a/ |
[V:2]d/e/d/c/ d/f/e/d/ e4 |
[V:3]B/c/B/A/ B/d/c/B/ c4 |
[V:4]B,2 z2 F,/G,/A,/G,/ F,/C/A,/F,/ |
[V:1]b2 d'2 b2 zz |
[V:2]d2 f2 d2 zB,/D/ |
[V:3]B2 B,2 B,2 z2 |
[V:4]B,2 B,,2 B,,2 z2 |
[V:1]z4 z2 zd/e/ |
[V:2]F2 DB F2 DC |
[V:3]z8 |
[V:4]_A,A, A,A, A,A, A,A, |
[V:1]f2 dd' =b2 gf |
[V:2]=B,4 d2 =Bd |
[V:3]z7 G,/=B,/ |
[V:4]G,G, G,G, G,G, G,G, |
[V:1]e8- |
[V:2]c8- |
[V:3]C2 G,E C2 G,E, |
[V:4]C,2 z4 zC,/E,/ |
[V:1]e7 _A/c/ |
[V:2]c6 C2 |
[V:3]_A,8- |
[V:4]_A,2 E,C A,2 E,C, |
[V:1]_d2 B_d' b2 gd |
[V:2]F4 B,4 |
[V:3]A,4 G,4 |
[V:4]B,,B,, B,,B,, E,E, E,E, |
[V:1]cE zE zE zE |
[V:2]Cz Cz Cz Cz |
[V:3]_A,z E,z E,z E,z |
[V:4]_A,,z A,,z A,,z A,,z |
[V:1]E/F/E/D/ EE zE zE |
[V:2]_Dz Dz Dz Dz |
[V:3][B,E,]z [B,E,]z [B,E,]z [B,E,]z |
[V:4]G,,z G,,z G,,z G,,z |
[V:1]Ec c4 B_A |
[V:2]EE EE EE EE |
[V:3]CC CC CC CC |
[V:4]_A,,_A, A,A, A,A, A,A, |
[V:1]Gf f4 e/_d/c/B/ |
[V:2][E_D][ED] [ED][ED] [ED][ED] [ED][ED] |
[V:3]B,G GG GG GG |
[V:4]B,B, B,B, B,B, B,B, |
[V:1]_A_g2 f2 e _dc |
[V:2]Ez Fz _Gz3 |
[V:3]Cz _Dz Ez3 |
[V:4]C2 z6 |
[V:1]_d_a2 _g2 f ed |
[V:2]z8 |
[V:3]F,z _G,z _A,z3 |
[V:4]_D,z E,z F,z3 |
[V:1]B_a2 g2 f ed |
[V:2]Fz Gz _Az3 |
[V:3]Dz Ez Fz3 |
[V:4]z8 |
[V:1]eb2 _a2 g fe |
[V:2]z8 |
[V:3]G,z _A,z B,z3 |
[V:4]E,z F,z G,z3 |
[V:1]_db2 c'2 _d'2 =e- |
[V:2]B2 _A2 G2 _d2 |
[V:3]G2 F2 =E2 B2 |
[V:4]z8 |
[V:1]ef2 g2 _a2 =B- |
[V:2]c2 B2 _A2 F2 |
[V:3]_A2 G2 F2 _D2 |
[V:4]z6 _D,,2 |
[V:1]Bc2 f2 =e2 =B- |
[V:2]=E2 =B,2 C2 F2 |
[V:3]C2 _D2 C2 D2 |
[V:4]C,,2 _D,,2 C,,2 D,,2 |
[V:1]Bc z4 zF/_A/ |
[V:2]=E2 z6 |
[V:3]C2 z6 |
[V:4]C,,2 z6 |
[V:1]cc zc zc zc |
[V:2]_Az Az Az Az |
[V:3]Fz Fz Fz Fz |
[V:4]z8 |
[V:1]c/_d/c/=B/ cc z2 zz |
[V:2]G4 z3 F/_A/ |
[V:3]=E4 z2 zz |
[V:4]z4 z2 zz |
[V:1]_a8 |
[V:2]cc zc zc zc |
[V:3]Fz Fz Fz Fz |
[V:4]z8 |
[V:1]_g4 z4 |
[V:2]c/_d/c/=B/ cc z4 |
[V:3]E4 z4 |
[V:4]z8 |
[V:1]f/_g/f/=e/ ff2 <z2 B,/_D/ |
[V:2]cc cc z2 zz |
[V:3]FF FF z2 zz |
[V:4]A,,A,, A,,A,, z2 zz |
[V:1]FF zF z_G zG |
[V:2]z8 |
[V:3]_Dz Dz Dz Dz |
[V:4]B,z B,z B,z B,z |
[V:1]_G/_A/G/F/ GG z=G zG |
[V:2]z8 |
[V:3]Ez Ez Ez Ez |
[V:4]_Cz Cz Cz Cz |
[V:1]_A/B/A/G/ AA z=A zA |
[V:2]z4 _g4 |
[V:3]Ez Ez Ez Ez |
[V:4]Cz Cz Cz Cz |
[V:1]B/c/B/A/ BB z=B zB |
[V:2]f4 _a2 f2 |
[V:3]Fz Fz Fz Fz |
[V:4]_Dz Dz Dz Dz |
[V:1]c/_d/c/=B/ cc c/d/c/B/ cc |
[V:2]cz Gz _Az Az |
[V:3]=Ez Ez Fz Fz |
[V:4]Cz Cz Cz Cz |
[V:1]c/_d/c/=B/ cc c/d/c/B/ cc |
[V:2]Gz Gz _Az Az |
[V:3]=Ez Ez Fz Fz |
[V:4]Cz Cz Cz Cz |
[V:1]c/_d/c/=B/ cc c/d/c/B/ cc |
[V:2]G2 z6 |
[V:3]=E2 z6 |
[V:4]C2 z6 |
[V:1]e/f/e/d/ e/f/e/d/ e/f/e/d/ ee |
[V:2][EG,][EG,] [G,E][EG,] [EG,][G,E] [EG,][EG,] |
[V:3]GG GG GG GG |
[V:4][C,,C,][C,C,,] [C,,C,][C,C,,] [C,C,,][C,,C,] [C,C,,][C,,C,] |
[V:1]c'3 ^f/a/ c'c/f/ aA/c/ |
[V:2][EA,][EA,] [EA,][EA,] [A,E][EA,] [A,E][A,E] |
[V:3]^FF FF FF FF |
[V:4][C,C,,][C,,C,] [C,,C,][C,,C,] [C,C,,][C,C,,] [C,C,,][C,,C,] |
[V:1]e^F/A/ cE/F/ AC/E/ FA,/C/ |
[V:2][A,E][A,E] [A,E][EA,] [A,E][EA,] [A,E][A,E] |
[V:3]^FF FF FF FF |
[V:4][C,,C,][C,,C,] [C,C,,][C,,C,] [C,,C,][C,C,,] [C,,C,][C,C,,] |
[V:1]E2 zA,/C/ EA,/C/ EA,/C/ |
[V:2][A,2E2] z2 [EA,]z [EA,]z |
[V:3]^F2 z2 ^F,z F,z |
[V:4][C,,2C,2] z2 [C,,C,]z [C,C,,]z |
[V:1]E2 z4 zG,/B,/ |
[V:2][A,2E2] z6 |
[V:3]^F,2 z6 |
[V:4][C,2C,,2] z6 |
[V:1]DD zD zD zD |
[V:2]B,z B,z B,z B,z |
[V:3]D,z D,z D,z D,z |
[V:4]G,,z G,,z G,,z G,,z |
[V:1]D/E/D/^C/ DD zD zD |
[V:2]A,z A,z A,z A,z |
[V:3][D,C]z [D,C]z [D,C]z [D,C]z |
[V:4]^F,,z F,,z F,,z F,,z |
[V:1]DB B4 AG |
[V:2]B,D DD DD DD |
[V:3]D,B, B,B, B,B, B,B, |
[V:4]G,,G, G,G, G,G, G,G, |
[V:1]^F/G/F/=E/ F/D/E/F/ G/A/B/c/ d/c/B/A/ |
[V:2]DD DD DD DD |
[V:3]CC CC CC CC |
[V:4]A,A, A,A, A,A, A,A, |
[V:1]G/A/G/^F/ G/A/B/c/ d/=e/^f/g/ f/g/f/g/ |
[V:2]GG GG GG GG |
[V:3]DD DD DD DD |
[V:4]B,B, B,B, B,B, B,B, |
[V:1]fe2 d2 c2 B- |
[V:2]G8- |
[V:3]C2 D2 E2 D2 |
[V:4]C2 D2 E2 D2 |
[V:1]BA2 B2 A2 B |
[V:2]G^F2 G2 F2 G |
[V:3]E2 D2 E2 =E2 |
[V:4]C2 B,2 C2 ^C2 |
[V:1]Az Bz cz Az |
[V:2]^Fz Gz Az Fz |
[V:3]D2 z2 D,/E,/D,/^C,/ D,D, |
[V:4]D/E/D/^C/ DD DD DD |
[V:1]Bz cz dz gz |
[V:2]Gz Az Bz Bz |
[V:3]z4 D,/E,/D,/^C,/ D,D, |
[V:4]D/E/D/^C/ DD DD DD |
[V:1]^fz gz az bz |
[V:2]Az Bz cz dz |
[V:3]cz Bz Az Gz |
[V:4]D/E/D/^C/ DD DD DD |
[V:1]c'4 a4 |
[V:2]e4 c4 |
[V:3]^F4 A4 |
[V:4]D/E/D/^C/ DD D/E/D/C/ DD |
[V:1]^f6 zG/=B/ |
[V:2]A6 zz |
[V:3]c6 zz |
[V:4]D6 zz |
[V:1]d2 =Bg d2 BG |
[V:2]zD zD zD zD |
[V:3]z=B, zB, zB, zB, |
[V:4]G,,z =B,,z D,z G,z |
[V:1]^Fz Az cz2 D |
[V:2]zD zD zD zD |
[V:3]zC zC zC zC |
[V:4]D,z ^F,z A,z F,z |
[V:1]d/=e/d/c/ =Bg d/e/d/c/ BG |
[V:2]zD zD zD zD |
[V:3]z=B, zB, zB, zB, |
[V:4]G,,z =B,,z D,z G,z |
[V:1]^F/G/F/G/ A/=B/A/B/ c2 zD |
[V:2]zD zD zD zD |
[V:3]zC zC zC zC |
[V:4]D,z ^F,z A,z F,z |
[V:1]=B/c/B/A/ GB d/=e/d/c/ Bd |
[V:2]D/=E/D/C/ =B,G =B/c/B/A/ GB |
[V:3]=B,B, B,B, B,B, B,B, |
[V:4]G,,G, G,G, G,,G, G,G, |
[V:1]=b2 a/g/^f/=e/ d2 zd |
[V:2]dz =ez d2 z^F |
[V:3]=B,z Cz B,2 zD |
[V:4]G,,z G,,z G,,2 zD, |
[V:1]^cz =cz =Bz =e2 |
[V:2]Gz Az Gz G2 |
[V:3]=Ez Dz Dz C2 |
[V:4]=E,z ^F,z G,z C,2 |
[V:1]G4- G^F =ed |
[V:2]=B,4 C4 |
[V:3]G,4 A,4 |
[V:4]D,8 |
[V:1]c4 =B2 z2 |
[V:2]^F4 G2 zG/=B/ |
[V:3]A,4 G,2 z2 |
[V:4]^D,4 =E,2 z2 |
[V:1]z7 G/=B/ |
[V:2]d2 =Bg d2 BG |
[V:3]z=B, zB, zB, zB, |
[V:4]G,,z =B,,z D,z G,z |
[V:1]c2 Aa ^f2 cA |
[V:2]^Fz Az c2 zD |
[V:3]zA, z^F, zD, zD, |
[V:4]D,z ^F,z A,z F,z |
[V:1]=B2 z4 zG/B/ |
[V:2]d/=e/d/c/ =Bg d/e/d/c/ BG |
[V:3]z=B, zB, zB, zB, |
[V:4]G,,z =B,,z D,z G,z |
[V:1]c2 Aa ^f2 cA |
[V:2]^F/G/F/G/ A/=B/A/B/ c2 zF |
[V:3]zA, z^F, zD, zD |
[V:4]D,z ^F,z A,z D,z |
[V:1]=B/d/g/=b/ a/g/^f/=e/ d/B/c/B/ c/A/^F/D/ |
[V:2]G2 z4 ^F2 |
[V:3]D2 z4 A,2 |
[V:4]G,2 z4 D,2 |
[V:1]=B/d/g/=b/ a/g/^f/=e/ d/B/c/B/ c/A/^F/D/ |
[V:2]G2 z4 A2 |
[V:3]=B,2 z4 ^F2 |
[V:4]G,2 z4 D,2 |
[V:1]d=B, C=e dB, Ce |
[V:2]=B/G/D/G/ =Ez B/G/D/G/ Ez |
[V:3]Gz =E/G/=B/c/ Bz E/G/B/c/ |
[V:4]G,z G,z G,z G,z |
[V:1]d/g/^f/=e/ d/c/=B/A/ G/=b/a/g/ f/e/d/c/ |
[V:2][=B2D2] z2 z/g/^f/=e/ d/c/B/A/ |
[V:3]=B2 z2 [B2D2] z2 |
[V:4]G,2 z2 G,2 z2 |
[V:1]=B/d'/c'/=b/ a/g/^f/=e/ d/g'/g'/g'/ g'/g'/g'/g'/ |
[V:2]G/=b/a/g/ ^f/=e/d/c/ =B2 z2 |
[V:3]z/G,/A,/=B,/ C/D/=E/^F/ G2 z2 |
[V:4]G,2 z6 |
[V:1]g'2 z^G, G,G, G,G, |
[V:2]z2 z^G, G,G, G,G, |
[V:3]z2 >^G,2 G,G, G,G, |
[V:4]z2 >^G,,2 G,,G,, G,,G,, |
[V:1]F4 =EA, ^G,A, |
[V:2]D4 CA, ^G,A, |
[V:3]=B,4 A,A, ^G,A, |
[V:4]^G,,4 A,,A,, G,,A,, |
[V:1]E4 DG ^F=F |
[V:2]C4 =B,B, CD |
[V:3]A,4 G,G, A,=B, |
[V:4]^F,,4 G,,2 z2 |
[V:1]=E^F G^G A=B cA |
[V:2]=E2 zD ED CE |
[V:3]C2 z=B, CB, A,C |
[V:4]C,,2 z6 |
[V:1]^FG A=B cd =ec |
[V:2]D=E ^FG A=B cA, |
[V:3]D^C =C=B, A,G, ^F,F, |
[V:4]D,8 |
[V:1]=B2 d4 ^F2 |
[V:2]=B,/C/B,/A,/ B,/D/C/B,/ C/D/C/B,/ C/=E/D/C/ |
[V:3]G,/A,/G,/^F,/ G,/=B,/A,/G,/ A,/B,/A,/G,/ A,/C/B,/A,/ |
[V:4]G,2 z6 |
[V:1]G/A/G/^F/ G/=B/d/B/ A/B/A/B/ A/=e/d/c/ |
[V:2]D2 G4 ^F2 |
[V:3]=B,4 C2 D2 |
[V:4]z8 |
[V:1]=B2 d'4 c'2 |
[V:2]G/A/G/^F/ G/=B/A/G/ F/G/A/B/ c/d/=e/^f/ |
[V:3]=B,/C/B,/A,/ B,/D/C/B,/ A,/B,/C/D/ =E/^F/G/A/ |
[V:4]G,2 z6 |
[V:1]=b2 g'4 f'2 |
[V:2]gG GG GG GG |
[V:3]=BD DD DD DD |
[V:4]G,=B, B,B, B,B, B,B, |
[V:1]^d'=e'2 <e'2 d'/e'/ g'2- |
[V:2]GG GG G2 zG |
[V:3]=EE EE E2 zE |
[V:4]CC CC C2 zC |
[V:1]g'^d'/=e'/ g'd'/e'/ g'd'/e'/ g'/e'/c'/a/ |
[V:2]G2 z6 |
[V:3]=E2 z6 |
[V:4]C2 z6 |
[V:1]g4 ag a=b |
[V:2]=B4 cB cd |
[V:3]G4 ^F4 |
[V:4]D,D, D,D, D,D, D,D, |
[V:1]g2 c'2 z4 |
[V:2]=B2 G2 z4 |
[V:3]G2 C2 z4 |
[V:4]=E,2 E,2 z4 |
[V:1]dc'2 =b2 a g^f |
[V:2]Az =Bz cz3 |
[V:3]^Fz Gz Az3 |
[V:4]z4 D/=E/D/^C/ DD |
[V:1]dd'2 c'2 =b ag |
[V:2]=Bz cz dz3 |
[V:3]Gz Az =Bz3 |
[V:4]z4 D/=E/D/^C/ DD |
[V:1]az =bz c'z3 |
[V:2]Dc2 =B2 A G^F |
[V:3]z4 d/=e/d/^c/ dd |
[V:4]^F,z G,z A,z3 |
[V:1]=bz c'z d'z3 |
[V:2]Dd2 c2 =B AG |
[V:3]z4 d/=e/d/^c/ dd |
[V:4]G,z A,z =B,z3 |
[V:1]=e=e'2 d'2 c' =ba |
[V:2]=e2 ^G2 Ae dc |
[V:3]z2 =E2 >A,2 =B,C |
[V:4]C,C2 =B,2 A, B,C |
[V:1]g4 ag a=b |
[V:2]=B4 cB cd |
[V:3]D4 ^F,4 |
[V:4]D4 D,4 |
[V:1]g2 z6 |
[V:2]=B2 z6 |
[V:3]G,2 z6 |
[V:4]G,2 z6 |
[V:1]z4 d/=e/d/^c/ dd |
[V:2]^Fz Gz Az3 |
[V:3]Az =Bz cz3 |
[V:4]D,C2 =B,2 A, G,^F, |
[V:1]z4 d/=e/d/^c/ dd |
[V:2]Gz Az =Bz3 |
[V:3]=Bz cz dz3 |
[V:4]D,D2 C2 =B, A,G, |
[V:1]az =bz c'z3 |
[V:2]z4 d/=e/d/^c/ dd |
[V:3]Dc2 =B2 A G^F |
[V:4]^F,z G,z A,z3 |
[V:1]=bz c'z d'z3 |
[V:2]z4 d/=e/d/^c/ dd |
[V:3]Dd2 c2 =B AG |
[V:4]G,z A,z =B,z3 |
[V:1]=e=e'2 d'2 c' =ba |
[V:2]z2 ^G2 A=e dc |
[V:3]=e2 =E2 >A,2 =B,C |
[V:4]C,,C2 =B,2 A, B,C |
[V:1]g4 ag a=b |
[V:2]=B4 cB cd |
[V:3]D4 ^F,4 |
[V:4]D4 D,4 |
[V:1]g2 z2 ^F/G/A/G/ F/c/A/F/ |
[V:2]=B/c/B/A/ B/d/c/B/ c4 |
[V:3]G/A/G/^F/ G/=B/A/G/ A4 |
[V:4]G,2 z2 D,/=E,/^F,/E,/ D,/A,/F,/D,/ |
[V:1]G2 z2 ^f/g/a/g/ f/c'/a/f/ |
[V:2]=B/c/B/A/ B/d/c/B/ c4 |
[V:3]G/A/G/^F/ G/=B/A/G/ A4 |
[V:4]G,2 z2 D,/=E,/^F,/E,/ D,/A,/F,/D,/ |
[V:1]g2 [g2D2=B2] [g2B2D2] z2 |]
[V:2]=B2 [g2B2D2] [g2B2D2] z2 |]
[V:3]G2 [=B2D2G,2] [B2G,2D2] z2 |]
[V:4]G,2 G,,2 G,,2 z2 |]

